assets/images/icons/sign-out-icon.svg

<svg fill="none" height="26" viewBox="0 0 26 26" width="26" xmlns="http://www.w3.org/2000/svg"><path d="m25.2383 13.8633-8.5313 8.5312c-.7617.7617-2.082.2285-2.082-.8633v-4.875h-6.90625c-.67539 0-1.21875-.5433-1.21875-1.2187v-4.875c0-.67541.54336-1.21877 1.21875-1.21877h6.90625v-4.875c0-1.08672 1.3152-1.625 2.082-.86328l8.5313 8.53125c.4722.4773.4722 1.2492 0 1.7266zm-15.4883 8.2773v-2.0312c0-.3352-.27422-.6094-.60938-.6094h-4.26562c-.89883 0-1.625-.7262-1.625-1.625v-9.75002c0-.89883.72617-1.625 1.625-1.625h4.26562c.33516 0 .60938-.27422.60938-.60937v-2.03125c0-.33516-.27422-.60938-.60938-.60938h-4.26562c-2.69141 0-4.875 2.1836-4.875 4.875v9.75002c0 2.6914 2.18359 4.875 4.875 4.875h4.26562c.33516 0 .60938-.2742.60938-.6094z" fill="#666"/></svg>

<svg width="26" height="26" viewBox="0 0 26 26" fill="none" xmlns="http://www.w3.org/2000/svg">
<path d="M25.2383 13.8633L16.707 22.3945C15.9453 23.1562 14.625 22.623 14.625 21.5312V16.6562H7.71875C7.04336 16.6562 6.5 16.1129 6.5 15.4375V10.5625C6.5 9.88709 7.04336 9.34373 7.71875 9.34373H14.625V4.46873C14.625 3.38201 15.9402 2.84373 16.707 3.60545L25.2383 12.1367C25.7105 12.614 25.7105 13.3859 25.2383 13.8633ZM9.75 22.1406V20.1094C9.75 19.7742 9.47578 19.5 9.14062 19.5H4.875C3.97617 19.5 3.25 18.7738 3.25 17.875V8.12498C3.25 7.22615 3.97617 6.49998 4.875 6.49998H9.14062C9.47578 6.49998 9.75 6.22576 9.75 5.89061V3.85936C9.75 3.5242 9.47578 3.24998 9.14062 3.24998H4.875C2.18359 3.24998 0 5.43358 0 8.12498V17.875C0 20.5664 2.18359 22.75 4.875 22.75H9.14062C9.47578 22.75 9.75 22.4758 9.75 22.1406Z" fill="#666666"/>
</svg>
